X: 13694
T: For My Mother Dear
R: waltz
M: 3/4
K: Dmajor
A,B,|:D3 E D2|F3 E D2|B,3 A,G,B,|A,4 DE|F3 E D2|d3 A F2|E6|
E4 A,B,|D3 E D2|F3 E D2|B,3 A,G,B,|A,4 DE|F2 A2 BA|F3 FED|D6|1 D4 A,B,:|2 D4 a2||
a4 ba|f3 f e2|d2 B2 BA|F2 A4|d2 G2 BA|A2 d2 f/g/f|e6|
e4 a2|a4 ba|f3 f e2|d2 B2 BA|F2 A4|
d2 G2 BA|A2 d2 f/g/f|e4e d|d4||

